assets/icons/24px/stroke/entertainment-24px.svg

<svg width="24" height="24" viewBox="0 0 24 24" fill="none" xmlns="http://www.w3.org/2000/svg">
<path fill-rule="evenodd" clip-rule="evenodd" d="M6.93417 3C6.95604 3 6.97799 3 7 3L17.0658 3C17.9523 2.99995 18.7161 2.99991 19.3278 3.08215C19.9833 3.17028 20.6117 3.36902 21.1213 3.87868C21.631 4.38835 21.8297 5.0167 21.9179 5.67221C22.0001 6.28387 22.0001 7.04767 22 7.93415L22 12.0658C22.0001 12.9523 22.0001 13.7161 21.9179 14.3278C21.8297 14.9833 21.631 15.6117 21.1213 16.1213C20.6117 16.631 19.9833 16.8297 19.3278 16.9179C18.7161 17.0001 17.9523 17.0001 17.0658 17H6.93417C6.04769 17.0001 5.28387 17.0001 4.67221 16.9179C4.0167 16.8297 3.38835 16.631 2.87868 16.1213C2.36902 15.6117 2.17028 14.9833 2.08215 14.3278C1.99991 13.7161 1.99995 12.9523 2 12.0658L2 8C2 7.97799 2 7.95604 2 7.93417C1.99995 7.04769 1.99991 6.28387 2.08215 5.67221C2.17028 5.0167 2.36902 4.38835 2.87868 3.87868C3.38835 3.36902 4.0167 3.17028 4.67221 3.08215C5.28387 2.99991 6.04769 2.99995 6.93417 3ZM4.93871 5.06431C4.50497 5.12263 4.36902 5.21677 4.2929 5.2929C4.21677 5.36902 4.12263 5.50497 4.06431 5.93871C4.00213 6.40121 4.00001 7.02893 4.00001 8V12C4.00001 12.9711 4.00213 13.5988 4.06431 14.0613C4.12263 14.495 4.21677 14.631 4.2929 14.7071C4.36902 14.7832 4.50497 14.8774 4.93871 14.9357C5.40121 14.9979 6.02893 15 7 15H17C17.9711 15 18.5988 14.9979 19.0613 14.9357C19.495 14.8774 19.631 14.7832 19.7071 14.7071C19.7832 14.631 19.8774 14.495 19.9357 14.0613C19.9979 13.5988 20 12.9711 20 12L20 8C20 7.02892 19.9979 6.40121 19.9357 5.93871C19.8774 5.50497 19.7832 5.36902 19.7071 5.2929C19.631 5.21677 19.495 5.12263 19.0613 5.06431C18.5988 5.00213 17.9711 5 17 5H7C6.02893 5 5.40121 5.00213 4.93871 5.06431Z" fill="white"/>
<path fill-rule="evenodd" clip-rule="evenodd" d="M6.04624 15H17.9538L18.9009 16.0824C19.4826 16.7472 19.991 17.3281 20.3099 17.8197C20.6259 18.3069 20.976 19.0364 20.6175 19.8264C20.259 20.6165 19.4795 20.8334 18.9047 20.9164C18.3248 21.0001 17.5528 21.0001 16.6694 21L7.40756 21C7.38182 21 7.35617 21 7.33061 21C6.44724 21.0001 5.67526 21.0001 5.09526 20.9164C4.52053 20.8334 3.74101 20.6165 3.38252 19.8264C3.02403 19.0364 3.37409 18.3069 3.6901 17.8197C4.009 17.3281 4.5174 16.7472 5.09916 16.0824C5.11599 16.0632 5.13289 16.0439 5.14984 16.0245L6.04624 15ZM6.95378 17L6.65499 17.3415C6.0075 18.0815 5.59849 18.5528 5.36802 18.9081C5.36257 18.9165 5.35734 18.9247 5.3523 18.9326C5.36159 18.9341 5.37118 18.9355 5.38109 18.9369C5.80026 18.9974 6.4243 19 7.40756 19H16.5924C17.5757 19 18.1998 18.9974 18.6189 18.9369C18.6288 18.9355 18.6384 18.9341 18.6477 18.9326C18.6427 18.9247 18.6374 18.9165 18.632 18.9081C18.4015 18.5528 17.9925 18.0815 17.345 17.3415L17.0462 17H6.95378ZM18.7704 19.1706C18.7701 19.1704 18.769 19.1668 18.7679 19.1601C18.7702 19.1674 18.7707 19.1707 18.7704 19.1706ZM18.898 18.8733C18.9038 18.8697 18.9073 18.8682 18.9076 18.8683C18.9079 18.8684 18.905 18.8702 18.898 18.8733ZM5.09242 18.8683C5.09273 18.8682 5.09623 18.8697 5.10198 18.8733C5.09498 18.8702 5.09211 18.8684 5.09242 18.8683ZM5.23212 19.1601C5.23103 19.1668 5.22987 19.1704 5.22957 19.1706C5.22926 19.1707 5.22981 19.1674 5.23212 19.1601Z" fill="white"/>
</svg>

<svg width="24" height="24" fill="none" xmlns="http://www.w3.org/2000/svg"><path fill-rule="evenodd" clip-rule="evenodd" d="M6.934 3H17.066c.886 0 1.65 0 2.262.082.655.088 1.284.287 1.793.797.51.51.709 1.138.797 1.793C22 6.284 22 7.048 22 7.934v4.132c0 .886 0 1.65-.082 2.262-.088.655-.287 1.284-.797 1.793-.51.51-1.138.709-1.793.797-.612.082-1.376.082-2.262.082H6.934c-.886 0-1.65 0-2.262-.082-.655-.088-1.284-.287-1.793-.797-.51-.51-.709-1.138-.797-1.793C2 13.716 2 12.952 2 12.066V8v-.066c0-.886 0-1.65.082-2.262.088-.655.287-1.284.797-1.793.51-.51 1.138-.709 1.793-.797C5.284 3 6.048 3 6.934 3zM4.94 5.064c-.434.059-.57.153-.646.229-.076.076-.17.212-.229.646C4.002 6.4 4 7.029 4 8v4c0 .971.002 1.599.064 2.061.059.434.153.57.229.646.076.076.212.17.646.229C5.4 14.998 6.029 15 7 15h10c.971 0 1.599-.002 2.061-.064.434-.059.57-.153.646-.229.076-.076.17-.212.229-.646.062-.462.064-1.09.064-2.061V8c0-.971-.002-1.599-.064-2.061-.059-.434-.153-.57-.229-.646-.076-.076-.212-.17-.646-.229C18.6 5.002 17.971 5 17 5H7c-.971 0-1.599.002-2.061.064z" fill="#fff"/><path fill-rule="evenodd" clip-rule="evenodd" d="M6.046 15h11.908l.947 1.082c.582.665 1.09 1.246 1.409 1.738.316.487.666 1.216.308 2.006-.359.79-1.138 1.007-1.713 1.09-.58.084-1.352.084-2.236.084H7.331c-.884 0-1.656 0-2.236-.084-.574-.083-1.354-.3-1.712-1.09-.359-.79-.009-1.52.307-2.006.319-.492.827-1.073 1.41-1.738l.05-.058L6.046 15zm.908 2l-.299.341c-.647.74-1.057 1.212-1.287 1.567l-.016.025.03.004c.418.06 1.042.063 2.026.063h9.184c.984 0 1.608-.003 2.027-.063l.029-.004-.016-.025c-.23-.355-.64-.827-1.287-1.567L17.046 17H6.954zm11.816 2.17l-.002-.01.002.01zm.128-.297a.042.042 0 0 1 .01-.005l-.01.005zm-13.806-.005l.01.005a.038.038 0 0 1-.01-.005zm.14.292a.04.04 0 0 1-.002.01l.002-.01z" fill="#fff"/></svg>
